!!!ONB: MCCC : ILB0172_02 : Extracted Monophonic Melody
!!!COM: Beethoven, Ludwig van
!!!OPR: Piano Sonata No.11
!!!OMV: 2
!!!SCT: Op.22
!!!ODT: 1799///
**kern
*thru
*staff1
*clefG2
*k[b-e-a-]
*E-:
*M9/8
*MM60
8g
16g
16f
16g
16a-
=2
4.a
[4.b-
8b-]
16b-
16a
16b-
16b
=3
4b
16.dd
32cc
[4.f
8f]
16f
16e
16f
16g
=4
[4.a-
16a-]
16g
16f
16e
16f
16g
16a-
16b-
16cc
16b
16cc
16a-
=5
4.f#
[4.g
16g]
16e-
16g
16b-
16ee-
16gg
=6
[4.bb-
8bb-]
8gg
8ee-
8b-
8g
8e-
=7
4.c
[4.ccc
8ccc]
16bb-
16aa-
16gg
16ff
=8
8ff
[4ee-
8ee-]
8ee-
8ee-
8ee-
8ff
8dd
=9
8ee-
8b-
8b-
8b-
8cc
8a-
8g
8a-
8f
=10
8e-
8B-
8B-
8B-
8c
8A-
8G
8A-
8F
=11
4E-
8F
4E-
8F
4E-
8B-
=12
4.B-
4E-
8r
8G
8B-
8e-
=13
[4.g
8g]
8g
8g
8g
8a-
8f
=14
4.f
4e-
8r
8B-
8e-
8g
=15
[4.b-
8b-]
8ee-
8ee-
8ee-
8ee-
8ee-
=16
4.ee-
8r
4ee-
8r
4dd-
=17
8r
8dd-
8cc-
8r
8cc-
8b-
8r
8b-
8a
=18
4b-
8r
4r
8r
4dd
16cc
16b-
=19
8b-
8a
16g
16f
[4.f
8f]
8g
8a
=20
8b-
16b-
16cc
16dd
16ee-
4.ff
16ee
16ff
16gg
16ff
16ee-
16dd
=21
8dd
8cc
16b-
16a-
4a-
16g
16f
8f
8g
8a-
=22
8b-
8cc#
8dd
8r
8ee
8ff
8r
8aa
8bb-
=23
8r
8ff#
8gg
8r
8dd
8ee-
8r
8b
8cc
=24
8r
[4ff
16ff]
32gg
32aa
32bb-
32ccc
32ddd
32eee-
8fff[
8fff]
8eee-
8ccc
=25
8bb-[
32bb-]
32aa
32ddd
32ccc
32bb-
32aa
32gg
32ff
32ee
32ff
32bb-
32aa
32gg
32ff
32ee-
32dd
32cc#
32dd
32gg
32ff
32ee-
32dd
32cc
32b-
32a
32b-
32ee-
32dd
32cc
32b-
32a
32g
=26
32e
32f
32f#
32g
32a-
32a
32b-
32b
32cc
32cc#
32dd
32ee-
32ee
32ff
32ff#
32gg
32aa-
32aa
32bb-
32bb
40ccc
40ccc#
40ddd
40eee-
40eee
8fff[
32fff]
32eee-
32ccc
32aa
32ff#
32ee-
32cc#
32a
=27
4b-
8r
4r
8cc#
8cc#
8dd
16.ee-
32cc
=28
4b-
8r
4r
8c#[
8c#]
8d
16.e-
32c
=29
8B-
8.e-
16c
8B-
8.e-
16c
8B-
16e-
16d
16e-
16c
=30
4.c
4B-
8r
4r
8r
=31
4r
8r
4r
8r
8B
16B
16A
16B
16c
=32
4.c#
4d
8r
8r
16d
16c#
16d
16e-
=33
4.e
4f
8r
8r
16b
16a
16b
16cc
=34
4.cc#
8dd
16dd
16cc#
16dd
16ee-
16ff
16gg
16aa-
16gg
16aa-
16ff
=35
4.ff
4ee
16g
16a
16b-
16cc
16dd-
16cc
16dd-
16b-
=36
4.b-
8cc
16cc
16b
16cc
16dd
16ee-
16ff
16gg-
16ff
16gg-
16ee-
=37
4.ee-
4dd
16f
16g
16a-
16b-
16cc-
16b-
16cc-
16a-
=38
4.a-
[8b-
16b-]
16a
16b-
16cc-
16dd-
16ee-
16ff-
16ee-
16ff-
16dd-
=39
16cc-
16dd-
16ee-
16dd-
16ee-
16cc-
16b-
16cc-
16dd-
16cc-
16dd-
16b-
16a-
16b-
8ee-
8ee-
=40
4ff-
8ee-
16a-
16b-
16cc-
16b-
16cc-
16a-
16f
16g-
8dd
8dd
=41
4ee-
8b-
16d
16e-
16f
16e-
16f
16d
16e-
16f
8b-
8b-
=42
4cc-
8b-
16g-
16a-
16b-
16a-
16b-
16g-
16e-
16f
8a
8a
=43
2.b-[
8b-]
8a
8a
=44
2.b-[
8b-]
8a
8a
=45
4b-
16d
16B-
16d
16e
16f
16e
16f
16d
16f
16g
16a-
16g
16a-
16f
=46
16a-
16b
16cc
16b
16dd
16cc
16b-
16a-
16g
16f
16e
16f
16g
16f
16a-
16f
16c
16d
=47
4e-
8r
4r
8r
8g
16g
16f
16g
16a-
=48
4.a
[4.b-
8b-]
16b-
16a
16b-
16b
=49
4b
16.dd
32cc
[4.f
8f]
16f
16e
16f
16g
=50
[4.a-
32a-]
32g
32f
32e
32f
32g
32a-
32b-
32cc
32dd
32ee-
32ee
32ff
32gg
32aa-
32bb-
32ccc
32bb
32ddd
32ccc
32bb-
32aa-
32gg
32ff
=51
4.ff#
[4.gg
16gg]
16e-
16g
16b-
16ee-
16gg
=52
[4.bb-
16bb-]
16ff#
16gg
16dd
16ee-
16a
16b-
16f#
16g
16d
16e-
16g
=53
8g
[4c
8c]
[4cc
8cc]
32ccc
32bb
32ddd
32ccc
32bb-
32aa-
32gg
32ff
=54
8ff
[4ee-
8ee-]
8ee-
8ee-
8ee-
8ff
8dd
=55
8ee-
8b-
8b-
8b-
8cc
8a-
8g
8a-
8f
=56
8e-
8B-
8B-
8B-
8c
8A-
8G
8A-
8F
=57
8E-
8G
8B-
8G
8B-
8e-
8B-
8e-
8g
=58
[4.g
8g]
8g
8g
8g
8a-
8f
=59
4.f
4e-
8r
8B-
8e-
8g-
=60
[4.b-
8b-]
8ee-
8ee-
8ee-
8ee-
8ee-
=61
4ee-
8dd-
8r
8ee-
8dd-
8r
8ee-
8dd-
=62
8r
8dd-
8cc-
8r
8cc-
8b-
8r
8b-
8a-
=63
4.a-
8r
4a-
8r
4g-
=64
8r
8g-
8f-
8r
8f-
8e-
8r
8e-
8d
=65
4e-
8r
4r
8r
4gg
16ff
16ee-
=66
8ee-
8dd
16cc
16b-
4.b-
8b-
8cc
8dd
=67
8ee-
16ee-
16ff
16gg
16aa-
4.bb-
16aa
16bb-
16ccc
16bb-
16aa-
16gg
=68
8gg
8ff
16ee-
16dd
4dd
16cc
16b-
8b-
8cc
8dd
=69
8ee-
8ff#
8gg
8r
8aa
8bb-
8r
8ddd
8eee-
=70
8r
8bb
8ccc
8r
8b
8cc
8r
8e
8f
=71
8r
[4b-
16b-]
32cc
32dd
32ee-
32ff
32gg
32aa-
8bb-[
8bb-]
8aa-
8ff
=72
8ee-[
32ee-]
32dd
32gg
32ff
32ee-
32dd
32cc
32b-
32a
32b-
32ee-
32dd
32cc
32b-
32a-
32g
32f#
32g
32cc
32b-
32a-
32g
32f
32e-
32d
32e-
32a-
32g
32f
32e-
32d
32c
=73
32A
32B-
32B
32c
32c#
32d
32e-
32e
32f
32f#
32g
32a-
32a
32b-
32b
32cc
32cc#
32dd
32ee-
32ee
40ff
40ff#
40gg
40aa-
40aa
8bb-[
32bb-]
32aa-
32ff#
32dd
32b
32a
32f#
32d
=74
4e-
8r
4r
8ff#
8ff#
8gg
16.aa-
32ff
=75
4ee-
8r
4r
8f#
8f#
8g
16.a-
32f
=76
8e-
8.a-
16f
8e-
8.a-
16f
8e-
16a-
16g
16a-
16f
=77
4.f
4e-
8r
4r
8r
==
*-
